Yaru++/mimetypes/16/application-msaccess.svg

<svg height="16" viewBox="0 0 4.233125 4.233125" width="16" xmlns="http://www.w3.org/2000/svg" xmlns:xlink="http://www.w3.org/1999/xlink"><linearGradient id="a" gradientUnits="userSpaceOnUse" x1="2.116711" x2="2.116711" y1=".26457" y2="3.968555"><stop offset="0" stop-color="#fff"/><stop offset=".125" stop-color="#fff" stop-opacity=".098039"/><stop offset=".92500001" stop-color="#fff" stop-opacity=".098039"/><stop offset="1" stop-color="#fff" stop-opacity=".498039"/></linearGradient><linearGradient id="b" gradientTransform="matrix(0 -.01021733 .01033057 0 -1.197959 4.642008)" gradientUnits="userSpaceOnUse" x1="441.37927" x2="40.018539" y1="240.30267" y2="395.24066"><stop offset="0" stop-color="#b52428"/><stop offset="1" stop-color="#d32429"/></linearGradient><path d="m1.3483185.26457065c-.1902366 0-.3444309.003678-.48573256.0273883-.14130436.023732-.28264046.0730955-.39065659.1808576-.10801348.1077595-.15783472.2495507-.18137354.3911699-.0235468.14162175-.0267719.29644565-.0258485.48728555v.7652908 1.0314115c-.00079371.1900038.002381.3445631.0258485.4857352.0235468.1416192.0733574.2834104.18137354.3911699.10801613.1077621.24935223.1571389.39065659.1808576.14130166.023732.29549596.027388.48573256.027388h1.5367831c.1902367 0 .3440949-.00362.4852167-.027388.1411245-.0237584.2824765-.0735294.3901381-.1813736.1076616-.1078441.1571653-.249413.1808576-.3906539.0236949-.1412435.0273883-.2951308.0273883-.4857352v-1.0314115-.7937109l-1.0582812-1.05828125z" opacity=".1"/><path d="m1.2845041.13228814c-.80473289 0-.89132146.0817496-.88737672.87924916v1.1050281 1.1050256c-.003942.7975022.0826438.8792518.88737672.8792518h1.6645336c.8047356 0 .8873794-.081739.8873794-.8792518v-1.1050256-1.1338742l-.8598535-.85040306z" fill="url(#b)"/><g enable-background="new" stroke-width="1.333333" transform="matrix(.26457031 0 0 .26457031 -84.662421 -62.173936)"><path d="m328 240.36523-4 .5918.00026 6.44889 4 .59375z" fill="#fff"/><path d="m329 241v5.99951s3 .00049 2.99975-.59638v-4.80627c.00025-.59686-2.99975-.59686-2.99975-.59686z" fill="#fff"/><path d="m326.26769 242.50196c.29848.99789.58188 2.0012.87678 2.99998-.2058-.0134-.41159-.0286-.61562-.0472-.0544-.22275-.1123-.44547-.17111-.66732-.27353-.0006-.54712-.01-.81976-.0232-.0526.21116-.10592.42143-.16026.6317-.17463-.0134-.34845-.0259-.52219-.0374.26017-.93819.5311-1.8728.78948-2.811.20759-.0152.41419-.0294.62268-.0454zm-.33491.53367c-.0597.42321-.19335.83047-.28334 1.24745.19601.001.39197.002.58888.004-.10157-.41698-.22535-.82865-.30554-1.25097z" fill="#a33639"/></g><path d="m2.1167101.26457065v3.70398435h.7683915c.7428341 0 .8190304-.076236.8190304-.8205807v-1.0314115-1.0582813l-.7937109-.79371085z" fill="#fff" opacity=".1"/><path d="m.5292882 2.1165628v1.0314115c-.003651.7443342.0761989.8205807.8190303.8205807h1.5367831c.7428341 0 .8190304-.076236.8190304-.8205807v-1.0314115z" fill="#fff" opacity=".1"/><path d="m1.3483185.00000034c-.1902366 0-.3444309.003678-.48573256.0273883-.14130436.023732-.28264046.0730955-.39065659.18085762-.10801348.10775949-.15783472.24955327-.18137354.39116987-.0235468.1416245-.0267613.2964457-.0258485.48728557v1.0298611 1.0314115c-.00079371.1900038.002381.3445631.0258485.4857352.0235468.1416192.0733574.2834104.18137354.3911699.10801613.1077621.24935223.1571389.39065659.1808576.14130166.023732.29549596.027388.48573256.027388h1.5367831c.1902367 0 .3440949-.00362.4852167-.027388.1411245-.0237584.2824765-.0735294.3901381-.1813736.1076616-.1078441.1571653-.249413.1808576-.3906539.0236949-.1412435.0273883-.2951308.0273883-.4857352v-1.0314115-1.16782915l-.9487333-.94873331zm0 .26457031h1.5621026l.7937109.79371085v1.0582813 1.0314115c0 .7443448-.076196.8205807-.8190304.8205807h-1.5367831c-.7428314 0-.82268138-.076246-.8190303-.8205807v-1.0314115-1.0314115c-.00364-.74433413.0761989-.82058065.8190303-.82058065z" opacity=".4"/><path d="m1.3483185.26457065c-.7428314 0-.8226708.0762465-.8190303.82058065v1.0314115 1.0314115c-.003651.7443342.0761989.8205807.8190303.8205807h1.5367831c.7428341 0 .8190304-.076236.8190304-.8205807v-1.0314115-1.0582813l-.7937109-.79371085zm0 .2645703h1.5621026l.5291406.52914055v1.0582813 1.0314115c0 .1815667-.00582.3159975-.019631.3984058-.013811.082406-.029841.09959-.034103.1038651-.00426.00426-.021245.020293-.1033491.034103-.082112.013816-.2161962.019636-.3973767.019636h-1.5367834c-.1811777 0-.3153969-.0063-.3978873-.02016-.08249298-.013837-.10001549-.029235-.1043809-.033587-.004365-.00437-.0199486-.021324-.0335898-.1033491-.0136254-.08203-.0194988-.216564-.0185993-.3978899v-.0005292-1.0319062-1.0319274-.0005291c-.00079371-.18132855.004974-.31585995.0185993-.39788995.0136254-.08203.0292218-.098992.0335898-.1033491.004365-.00436.02188-.019737.1043809-.033587.08249-.013837.2167096-.02016.3978873-.02016z" fill="url(#a)" opacity=".4"/><path d="m3.704132 1.3228519v-.2645704l-.7937109-.79371085h-.2645704v.4049434.01553.00833c0 .54761025.073304.63205055.6221715.62936515z" fill="#6d1618" opacity=".6"/><path d="m3.704132 1.058181-.7937109-.79361035v.2943847.012832.00688c0 .45177765.020822.48176405.4736364.47954955z" fill="#df6165"/></svg>

<?xml version="1.0" encoding="UTF-8" standalone="no"?>
<svg
   xmlns:dc="http://purl.org/dc/elements/1.1/"
   xmlns:cc="http://creativecommons.org/ns#"
   xmlns:rdf="http://www.w3.org/1999/02/22-rdf-syntax-ns#"
   xmlns:svg="http://www.w3.org/2000/svg"
   xmlns="http://www.w3.org/2000/svg"
   xmlns:xlink="http://www.w3.org/1999/xlink"
   xmlns:sodipodi="http://sodipodi.sourceforge.net/DTD/sodipodi-0.dtd"
   xmlns:inkscape="http://www.inkscape.org/namespaces/inkscape"
   height="16"
   viewBox="0 0 4.233125 4.233125"
   width="16"
   version="1.1"
   id="svg37"
   sodipodi:docname="application-msaccess.svg"
   inkscape:version="0.92.5 (2060ec1f9f, 2020-04-08)">
  <metadata
     id="metadata43">
    <rdf:RDF>
      <cc:Work
         rdf:about="">
        <dc:format>image/svg+xml</dc:format>
        <dc:type
           rdf:resource="http://purl.org/dc/dcmitype/StillImage" />
      </cc:Work>
    </rdf:RDF>
  </metadata>
  <defs
     id="defs41">
    <linearGradient
       gradientTransform="matrix(0.26457031,0,0,0.26457031,-84.662351,-62.438593)"
       inkscape:collect="always"
       xlink:href="#linearGradient927"
       id="linearGradient993"
       x1="328"
       y1="237"
       x2="328"
       y2="251"
       gradientUnits="userSpaceOnUse" />
    <linearGradient
       inkscape:collect="always"
       id="linearGradient927">
      <stop
         style="stop-color:#ffffff;stop-opacity:1;"
         offset="0"
         id="stop923" />
      <stop
         id="stop933"
         offset="0.125"
         style="stop-color:#ffffff;stop-opacity:0.09803922" />
      <stop
         id="stop931"
         offset="0.92500001"
         style="stop-color:#ffffff;stop-opacity:0.09803922" />
      <stop
         style="stop-color:#ffffff;stop-opacity:0.49803922"
         offset="1"
         id="stop925" />
    </linearGradient>
    <linearGradient
       inkscape:collect="always"
       xlink:href="#linearGradient4338-3-6"
       id="linearGradient920"
       gradientUnits="userSpaceOnUse"
       gradientTransform="matrix(0,-0.01021733,0.01033057,0,-1.1979591,4.6420081)"
       x1="441.37927"
       y1="240.30267"
       x2="40.018539"
       y2="395.24066" />
    <linearGradient
       inkscape:collect="always"
       id="linearGradient4338-3-6">
      <stop
         style="stop-color:#b52428;stop-opacity:1"
         offset="0"
         id="stop4340-0-7" />
      <stop
         style="stop-color:#d32429;stop-opacity:1"
         offset="1"
         id="stop4342-7-5" />
    </linearGradient>
  </defs>
  <sodipodi:namedview
     pagecolor="#ffffff"
     bordercolor="#666666"
     borderopacity="1"
     objecttolerance="10"
     gridtolerance="10"
     guidetolerance="10"
     inkscape:pageopacity="0"
     inkscape:pageshadow="2"
     inkscape:window-width="834"
     inkscape:window-height="480"
     id="namedview39"
     showgrid="false"
     inkscape:zoom="14.75"
     inkscape:cx="8"
     inkscape:cy="8"
     inkscape:window-x="0"
     inkscape:window-y="28"
     inkscape:window-maximized="0"
     inkscape:current-layer="svg37" />
  <linearGradient
     id="a"
     gradientUnits="userSpaceOnUse"
     x1="328"
     x2="328"
     y1="237"
     y2="251">
    <stop
       offset="0"
       stop-color="#fff"
       id="stop2" />
    <stop
       offset=".125"
       stop-color="#fff"
       stop-opacity=".098039"
       id="stop4" />
    <stop
       offset=".92500001"
       stop-color="#fff"
       stop-opacity=".098039"
       id="stop6" />
    <stop
       offset="1"
       stop-color="#fff"
       stop-opacity=".498039"
       id="stop8" />
  </linearGradient>
  <clipPath
     id="b">
    <path
       d="m325.09646 237c-2.80769 0-3.10979.28839-3.09603 3.10176v3.89824 3.89824c-.0138 2.81337.28834 3.10176 3.09603 3.10176h5.8075c2.8077 0 3.09604-.28835 3.09604-3.10176v-3.89824-3.89824c0-2.8134-.28835-3.10176-3.09604-3.10176z"
       id="path11" />
  </clipPath>
  <linearGradient
     id="c"
     gradientTransform="matrix(0 -.00953618 -.00953591 0 5.176272 4.473642)"
     gradientUnits="userSpaceOnUse"
     x1="459.03448"
     x2="35.310345"
     y1="419.23337"
     y2="207.36522">
    <stop
       offset="0"
       stop-color="#b52428"
       id="stop14" />
    <stop
       offset="1"
       stop-color="#d32429"
       id="stop16" />
  </linearGradient>
  <path
     style="color:#000000;font-style:normal;font-variant:normal;font-weight:normal;font-stretch:normal;font-size:medium;line-height:normal;font-family:sans-serif;font-variant-ligatures:normal;font-variant-position:normal;font-variant-caps:normal;font-variant-numeric:normal;font-variant-alternates:normal;font-feature-settings:normal;text-indent:0;text-align:start;text-decoration:none;text-decoration-line:none;text-decoration-style:solid;text-decoration-color:#000000;letter-spacing:normal;word-spacing:normal;text-transform:none;writing-mode:lr-tb;direction:ltr;text-orientation:mixed;dominant-baseline:auto;baseline-shift:baseline;text-anchor:start;white-space:normal;shape-padding:0;clip-rule:nonzero;display:inline;overflow:visible;visibility:visible;opacity:0.1;isolation:auto;mix-blend-mode:normal;color-interpolation:sRGB;color-interpolation-filters:linearRGB;solid-color:#000000;solid-opacity:1;vector-effect:none;fill:#000000;fill-opacity:1;fill-rule:nonzero;stroke:none;stroke-width:0.52914065;stroke-linecap:butt;stroke-linejoin:miter;stroke-miterlimit:4;stroke-dasharray:none;stroke-dashoffset:0;stroke-opacity:1;marker:none;color-rendering:auto;image-rendering:auto;shape-rendering:auto;text-rendering:auto;enable-background:accumulate"
     d="m 1.3483185,0.26457065 c -0.1902366,0 -0.3444309,0.003678 -0.48573256,0.0273883 -0.14130436,0.023732 -0.28264046,0.0730955 -0.39065659,0.1808576 C 0.36391587,0.58057605 0.31409463,0.72236725 0.29055581,0.86398645 0.26700901,1.0056082 0.26378391,1.1604321 0.26470731,1.351272 v 0.7652908 1.0314115 c -7.9371e-4,0.1900038 0.002381,0.3445631 0.0258485,0.4857352 0.0235468,0.1416192 0.0733574,0.2834104 0.18137354,0.3911699 C 0.57994548,4.1326415 0.72128158,4.1820183 0.86258594,4.205737 1.0038876,4.229469 1.1580819,4.233125 1.3483185,4.233125 h 1.5367831 c 0.1902367,0 0.3440949,-0.00362 0.4852167,-0.027388 C 3.5114428,4.1819786 3.6527948,4.1322076 3.7604564,4.0243634 3.868118,3.9165193 3.9176217,3.7749504 3.941314,3.6337095 3.9650089,3.492466 3.9687023,3.3385787 3.9687023,3.1479743 V 2.1165628 1.3228519 L 2.9104211,0.26457065 Z"
     id="path997"
     inkscape:connector-curvature="0"
     sodipodi:nodetypes="scscccccccsscscscccs" />
  <path
     style="color:#000000;display:inline;overflow:visible;visibility:visible;fill:url(#linearGradient920);fill-opacity:1;fill-rule:nonzero;stroke:none;stroke-width:0.26457033;marker:none;enable-background:accumulate"
     d="m 1.2845041,0.13228814 c -0.80473289,0 -0.89132146,0.0817496 -0.88737672,0.87924916 V 2.1165654 3.221591 c -0.003942,0.7975022 0.0826438,0.8792518 0.88737672,0.8792518 h 1.6645336 c 0.8047356,0 0.8873794,-0.081739 0.8873794,-0.8792518 V 2.1165654 0.9826912 L 2.9765636,0.13228814 Z"
     id="path918"
     inkscape:connector-curvature="0"
     sodipodi:nodetypes="scccssscccs" />
  <g
     transform="matrix(0.26457031,0,0,0.26457031,-84.662421,-62.173936)"
     style="display:inline;enable-background:new"
     id="g21323">
    <path
       sodipodi:nodetypes="ccccc"
       style="display:inline;fill:#ffffff;stroke-width:1.33333325;enable-background:new"
       d="m 328,240.36523 -4,0.5918 2.6e-4,6.44889 4,0.59375 z"
       id="path988-6"
       inkscape:connector-curvature="0" />
    <path
       style="display:inline;fill:#ffffff;stroke-width:1.33333325;enable-background:new"
       d="m 329,241 v 5.99951 c 0,0 3,4.9e-4 2.99975,-0.59638 v -4.80627 C 332,241 329,241 329,241 Z"
       id="path991-0"
       inkscape:connector-curvature="0"
       sodipodi:nodetypes="ccccc" />
    <path
       sodipodi:nodetypes="cccccccccccccc"
       id="path20"
       d="m 326.26769,242.50196 c 0.29848,0.99789 0.58188,2.0012 0.87678,2.99998 -0.2058,-0.0134 -0.41159,-0.0286 -0.61562,-0.0472 -0.0544,-0.22275 -0.1123,-0.44547 -0.17111,-0.66732 -0.27353,-6e-4 -0.54712,-0.01 -0.81976,-0.0232 -0.0526,0.21116 -0.10592,0.42143 -0.16026,0.6317 -0.17463,-0.0134 -0.34845,-0.0259 -0.52219,-0.0374 0.26017,-0.93819 0.5311,-1.8728 0.78948,-2.811 0.20759,-0.0152 0.41419,-0.0294 0.62268,-0.0454 z m -0.33491,0.53367 c -0.0597,0.42321 -0.19335,0.83047 -0.28334,1.24745 0.19601,10e-4 0.39197,0.002 0.58888,0.004 -0.10157,-0.41698 -0.22535,-0.82865 -0.30554,-1.25097 z"
       style="display:inline;fill:#a33639;stroke-width:1.33333337;enable-background:new"
       inkscape:connector-curvature="0" />
  </g>
  <path
     style="color:#000000;display:inline;overflow:visible;visibility:visible;opacity:0.1;fill:#ffffff;fill-opacity:1;fill-rule:nonzero;stroke:none;stroke-width:0.26457033;marker:none;enable-background:accumulate"
     d="M 2.1167101,0.26457065 V 3.968555 h 0.7683915 c 0.7428341,0 0.8190304,-0.076236 0.8190304,-0.8205807 V 2.1165628 1.0582815 L 2.9104211,0.26457065 Z"
     id="path1009"
     inkscape:connector-curvature="0"
     sodipodi:nodetypes="ccsscccc" />
  <path
     style="color:#000000;display:inline;overflow:visible;visibility:visible;opacity:0.1;fill:#ffffff;fill-opacity:1;fill-rule:nonzero;stroke:none;stroke-width:0.26457033;marker:none;enable-background:accumulate"
     d="M 0.5292882,2.1165628 V 3.1479743 C 0.5256372,3.8923085 0.6054871,3.968555 1.3483185,3.968555 h 1.5367831 c 0.7428341,0 0.8190304,-0.076236 0.8190304,-0.8205807 V 2.1165628 Z"
     id="path1016"
     inkscape:connector-curvature="0" />
  <path
     style="color:#000000;font-style:normal;font-variant:normal;font-weight:normal;font-stretch:normal;font-size:medium;line-height:normal;font-family:sans-serif;font-variant-ligatures:normal;font-variant-position:normal;font-variant-caps:normal;font-variant-numeric:normal;font-variant-alternates:normal;font-feature-settings:normal;text-indent:0;text-align:start;text-decoration:none;text-decoration-line:none;text-decoration-style:solid;text-decoration-color:#000000;letter-spacing:normal;word-spacing:normal;text-transform:none;writing-mode:lr-tb;direction:ltr;text-orientation:mixed;dominant-baseline:auto;baseline-shift:baseline;text-anchor:start;white-space:normal;shape-padding:0;clip-rule:nonzero;display:inline;overflow:visible;visibility:visible;opacity:0.4;isolation:auto;mix-blend-mode:normal;color-interpolation:sRGB;color-interpolation-filters:linearRGB;solid-color:#000000;solid-opacity:1;vector-effect:none;fill:#000000;fill-opacity:1;fill-rule:nonzero;stroke:none;stroke-width:0.52914065;stroke-linecap:butt;stroke-linejoin:miter;stroke-miterlimit:4;stroke-dasharray:none;stroke-dashoffset:0;stroke-opacity:1;marker:none;color-rendering:auto;image-rendering:auto;shape-rendering:auto;text-rendering:auto;enable-background:accumulate"
     d="m 1.3483185,3.4e-7 c -0.1902366,0 -0.3444309,0.003678 -0.48573256,0.0273883 -0.14130436,0.023732 -0.28264046,0.0730955 -0.39065659,0.18085762 -0.10801348,0.10775949 -0.15783472,0.24955327 -0.18137354,0.39116987 -0.0235468,0.1416245 -0.0267613,0.2964457 -0.0258485,0.48728557 v 1.0298611 1.0314115 c -7.9371e-4,0.1900038 0.002381,0.3445631 0.0258485,0.4857352 0.0235468,0.1416192 0.0733574,0.2834104 0.18137354,0.3911699 C 0.57994548,4.1326415 0.72128158,4.1820183 0.86258594,4.205737 1.0038876,4.229469 1.1580819,4.233125 1.3483185,4.233125 h 1.5367831 c 0.1902367,0 0.3440949,-0.00362 0.4852167,-0.027388 C 3.5114428,4.1819786 3.6527948,4.1322076 3.7604564,4.0243634 3.868118,3.9165193 3.9176217,3.7749504 3.941314,3.6337095 3.9650089,3.492466 3.9687023,3.3385787 3.9687023,3.1479743 V 2.1165628 0.94873365 L 3.019969,3.4e-7 Z m 0,0.26457031 H 2.9104211 L 3.704132,1.0582815 v 1.0582813 1.0314115 c 0,0.7443448 -0.076196,0.8205807 -0.8190304,0.8205807 H 1.3483185 c -0.7428314,0 -0.82268138,-0.076246 -0.8190303,-0.8205807 V 2.1165628 1.0851513 C 0.5256482,0.34081717 0.6054871,0.26457065 1.3483185,0.26457065 Z"
     id="path928"
     inkscape:connector-curvature="0"
     sodipodi:nodetypes="scscccccccsscscscccsscccssscccs" />
  <path
     style="color:#000000;font-style:normal;font-variant:normal;font-weight:normal;font-stretch:normal;font-size:medium;line-height:normal;font-family:sans-serif;font-variant-ligatures:normal;font-variant-position:normal;font-variant-caps:normal;font-variant-numeric:normal;font-variant-alternates:normal;font-feature-settings:normal;text-indent:0;text-align:start;text-decoration:none;text-decoration-line:none;text-decoration-style:solid;text-decoration-color:#000000;letter-spacing:normal;word-spacing:normal;text-transform:none;writing-mode:lr-tb;direction:ltr;text-orientation:mixed;dominant-baseline:auto;baseline-shift:baseline;text-anchor:start;white-space:normal;shape-padding:0;clip-rule:nonzero;display:inline;overflow:visible;visibility:visible;opacity:0.4;isolation:auto;mix-blend-mode:normal;color-interpolation:sRGB;color-interpolation-filters:linearRGB;solid-color:#000000;solid-opacity:1;vector-effect:none;fill:url(#linearGradient993);fill-opacity:1;fill-rule:nonzero;stroke:none;stroke-width:0.52914065;stroke-linecap:butt;stroke-linejoin:miter;stroke-miterlimit:4;stroke-dasharray:none;stroke-dashoffset:0;stroke-opacity:1;marker:none;color-rendering:auto;image-rendering:auto;shape-rendering:auto;text-rendering:auto;enable-background:accumulate"
     clip-path="none"
     d="m 1.3483185,0.26457065 c -0.7428314,0 -0.8226708,0.0762465 -0.8190303,0.82058065 V 2.1165628 3.1479743 C 0.5256372,3.8923085 0.6054871,3.968555 1.3483185,3.968555 h 1.5367831 c 0.7428341,0 0.8190304,-0.076236 0.8190304,-0.8205807 V 2.1165628 1.0582815 L 2.9104211,0.26457065 Z m 0,0.2645703 H 2.9104211 L 3.4395617,1.0582815 v 1.0582813 1.0314115 c 0,0.1815667 -0.00582,0.3159975 -0.019631,0.3984058 -0.013811,0.082406 -0.029841,0.09959 -0.034103,0.1038651 -0.00426,0.00426 -0.021245,0.020293 -0.1033491,0.034103 -0.082112,0.013816 -0.2161962,0.019636 -0.3973767,0.019636 H 1.3483185 c -0.1811777,0 -0.3153969,-0.0063 -0.3978873,-0.02016 C 0.86793822,3.6699872 0.85041571,3.6545892 0.8460503,3.6502372 0.8416853,3.6458672 0.8261017,3.6289132 0.8124605,3.5468881 0.7988351,3.4648581 0.7929617,3.3303241 0.7938612,3.1489982 V 3.148469 2.1165628 1.0846354 1.0841063 c -7.9371e-4,-0.18132855 0.004974,-0.31585995 0.0185993,-0.39788995 0.0136254,-0.08203 0.0292218,-0.098992 0.0335898,-0.1033491 0.004365,-0.00436 0.02188,-0.019737 0.1043809,-0.033587 0.08249,-0.013837 0.2167096,-0.02016 0.3978873,-0.02016 z"
     id="path937"
     inkscape:connector-curvature="0"
     sodipodi:nodetypes="scccssscccsscccscccssccccccccsccs" />
  <path
     inkscape:connector-curvature="0"
     style="color:#000000;display:inline;overflow:visible;visibility:visible;opacity:0.6;fill:#6d1618;fill-opacity:1;fill-rule:nonzero;stroke:none;stroke-width:0.06614863;marker:none;enable-background:accumulate"
     d="M 3.704132,1.3228519 V 1.0582815 L 2.9104211,0.26457065 H 2.6458507 v 0.4049434 0.01553 0.00833 c 0,0.54761025 0.073304,0.63205055 0.6221715,0.62936515 z"
     id="rect4158-0-3-62-2-3-7-3"
     sodipodi:nodetypes="ccccccscc" />
  <path
     inkscape:connector-curvature="0"
     style="color:#000000;display:inline;overflow:visible;visibility:visible;fill:#df6165;fill-opacity:1;fill-rule:nonzero;stroke:none;stroke-width:0.06614863;marker:none;enable-background:accumulate"
     d="M 3.704132,1.058181 2.9104211,0.26457065 v 0.2943847 0.012832 0.00688 c 0,0.45177765 0.020822,0.48176405 0.4736364,0.47954955 z"
     id="rect4158-0-3-62-6-5-5"
     sodipodi:nodetypes="ccccscc" />
</svg>
